X:219
T:Faith of Our Fathers
%%stretchlast false
M:3/4
L:1/4
K:G clef=C1
"^I"[G,DB] "^ii"[G,CDA] "^I"[G,B,DG] | [G,B,DG] "^V7²"[A,CDF] "^I"[G,B,DG] | "^ii¹"[C,A,EA] [C,A,E] "^V7"[D,CDF] | "^I"[G,,B,DG]3 | "^IV"[C,G,EG] "^V"[C,G,DF] "^IV¹"[E,G,CE] | "^I"[G,B,D]2 [G,,B,DG] | "^II7"[A,,E,^CG] "^vii7¹"[A,,E,^CF] "^V/V"[A,,G,^CG] | "^V"[D,F,DA]3 | "^I"[G,DB] "^ii"[G,CDA] "^I"[G,B,DG] | "^I²"[D,B,DG] "^V7"[D,A,CF] "^vi"[E,G,B,G] | "^ii¹"[C,CEA] "^IV"[C,CE] "^V7"[D,A,CF] | "^vi"[E,G,B,G]3 | "^IV"[C,G,EG] "^V"[C,G,DF] "^IV"[C,G,CE] | "^I²"[D,G,B,D] "^iii¹"[D,B,D] [D,DB] | "^II"[D,^CEA] "^♯iv"[D,^CEB] "^V7"[D,CFA] | "^I"[G,B,G]3 | "^IV"[C,EGc] [C,EGc] [C,EGc] | "^I"[G,DGB]2 [G,DGB] | "^V"[D,DFA]2 [D,DFA] | "^I"[G,DGB]3 | [G,,G,B,B] "^ii7"[A,,G,CA] "^I¹"[B,,G,DG] | "^IV"[C,G,CE]2 "^vi"[E,G,B,G] | "^i"[D,G,DA]2 "^V7"[D,F,CA] | "^I"[G,,G,B,G]3 |]
